static/app-icons/light-theme/DownloadDirector.svg

<svg xmlns="http://www.w3.org/2000/svg" viewBox="0 0 32 32"><defs><linearGradient id="a" x1="2780.176" y1="1622" x2="2792.412" y2="1622" gradientTransform="matrix(1.063 0 0 -1 -2940.937 1627)" gradientUnits="userSpaceOnUse"><stop offset=".001" stop-opacity="0"/><stop offset=".7"/></linearGradient><linearGradient id="c" x1="-2232.353" y1="32" x2="-2262.471" gradientTransform="matrix(1.063 0 0 -1 2403.875 32)" gradientUnits="userSpaceOnUse"><stop offset=".1" stop-color="#08bdba"/><stop offset=".9" stop-color="#0f62fe"/></linearGradient><mask id="b" x="0" y="0" width="32" height="32" maskUnits="userSpaceOnUse"><path d="M4 4h24a2 2 0 012 2v16a2 2 0 01-2 2h-8v4h4v2H8v-2h4v-4H4a2 2 0 01-2-2V6a2 2 0 012-2zm10 24h4v-4h-4zM4 22h24V6H4z" fill="#fff"/><path transform="rotate(-180 19.5 5)" fill="url(#a)" d="M13 3h13v4H13z" data-name="Gradients (black)"/></mask></defs><g data-name="Layer 2"><g data-name="Light theme icons"><g mask="url(#b)"><path transform="rotate(180 16 16)" fill="url(#c)" d="M0 0h32v32H0z"/></g><path fill="#001d6c" d="M17 14.17V2h-2v12.17l-2.59-2.58L11 13l5 5 5-5-1.41-1.41L17 14.17z"/></g></g></svg>

<svg xmlns="http://www.w3.org/2000/svg" xmlns:xlink="http://www.w3.org/1999/xlink" viewBox="0 0 32 32"><defs><style>.cls-1{fill:#fff;}.cls-2{fill:url(#linear-gradient);}.cls-3{mask:url(#mask);}.cls-4{fill:url(#linear-gradient-2);}.cls-5{fill:#001d6c;}</style><linearGradient id="linear-gradient" x1="2780.176" y1="1622" x2="2792.412" y2="1622" gradientTransform="matrix(1.063, 0, 0, -1, -2940.937, 1627)" gradientUnits="userSpaceOnUse"><stop offset="0.001" stop-opacity="0"/><stop offset="0.7"/></linearGradient><mask id="mask" x="0" y="0" width="32" height="32" maskUnits="userSpaceOnUse"><path class="cls-1" d="M4,4H28a2,2,0,0,1,2,2V22a2,2,0,0,1-2,2H20v4h4v2H8V28h4V24H4a2,2,0,0,1-2-2V6A2,2,0,0,1,4,4ZM14,28h4V24H14ZM4,22H28V6H4Z"/><g id="Gradients_black_" data-name="Gradients (black)"><rect class="cls-2" x="13" y="3" width="13" height="4" transform="translate(39.001 10) rotate(-180)"/></g></mask><linearGradient id="linear-gradient-2" x1="-2232.353" y1="32" x2="-2262.471" gradientTransform="matrix(1.063, 0, 0, -1, 2403.875, 32)" gradientUnits="userSpaceOnUse"><stop offset="0.1" stop-color="#08bdba"/><stop offset="0.9" stop-color="#0f62fe"/></linearGradient></defs><g id="Layer_2" data-name="Layer 2"><g id="Light_theme_icons" data-name="Light theme icons"><g class="cls-3"><rect class="cls-4" width="32" height="32" transform="translate(32 32) rotate(180)"/></g><polygon class="cls-5" points="17 14.17 17 2 15 2 15 14.17 12.41 11.59 11 13 16 18 21 13 19.59 11.59 17 14.17"/></g></g></svg>
